X: 28
T: War song
N: Derived from ojibwa28.krn
C: Chippewa Songs ~ 1910
O: Red Wing, Minnesota, U.S.A
N: Chippewa Music by Frances Densmore, 1910
Z: transcribed to **kern format by Paul von Hippel and Daniel T. Shanahan
L: 1/8
M: 2/4
Q: 1/4=108
K: B clef=bass
%%linebreak <none>
D/ [I:setbarnb 1]| 
(3D C C B,/ A,3/ | 
[M:3/4](3B, A, A,G,3E, | 
[M:2/4]G,2G, G, | 
G,2G,2 | 
G,3G, | 
[M:3/4]G,4-G,3/ A,/ | 
[M:2/4](3A, G, G, G,/ G,3/ | 
[M:3/4](3A, G, G,G,3E, | 
[M:2/4]G,2G, G, | 
E,> D, D,3/ G,/ | 
G, G, E, D, | 
[M:3/4](3E, D, D,D,3B, | 
[M:2/4]D,2D, B,, | 
(3B A AG2 | 
B B B B | 
(3B A AG2 | 
G3G | 
G7/ |]  



